svg/skull-sharp.svg

<?xml version="1.0" encoding="UTF-8" standalone="no"?>
<svg
   xmlns:dc="http://purl.org/dc/elements/1.1/"
   xmlns:cc="http://creativecommons.org/ns#"
   xmlns:rdf="http://www.w3.org/1999/02/22-rdf-syntax-ns#"
   xmlns:svg="http://www.w3.org/2000/svg"
   xmlns="http://www.w3.org/2000/svg"
   xmlns:sodipodi="http://sodipodi.sourceforge.net/DTD/sodipodi-0.dtd"
   xmlns:inkscape="http://www.inkscape.org/namespaces/inkscape"
   class="ionicon"
   viewBox="0 0 512 512"
   version="1.1"
   id="svg6"
   sodipodi:docname="skull-sharp.svg"
   inkscape:version="1.0.2 (e86c8708, 2021-01-15)">
  <metadata
     id="metadata12">
    <rdf:RDF>
      <cc:Work
         rdf:about="">
        <dc:format>image/svg+xml</dc:format>
        <dc:type
           rdf:resource="http://purl.org/dc/dcmitype/StillImage" />
      </cc:Work>
    </rdf:RDF>
  </metadata>
  <defs
     id="defs10" />
  <sodipodi:namedview
     pagecolor="#ffffff"
     bordercolor="#666666"
     borderopacity="1"
     objecttolerance="10"
     gridtolerance="10"
     guidetolerance="10"
     inkscape:pageopacity="0"
     inkscape:pageshadow="2"
     inkscape:window-width="689"
     inkscape:window-height="480"
     id="namedview8"
     showgrid="false"
     inkscape:zoom="1.3027344"
     inkscape:cx="256"
     inkscape:cy="256"
     inkscape:window-x="44"
     inkscape:window-y="25"
     inkscape:window-maximized="0"
     inkscape:current-layer="svg6" />
  <title
     id="title2">Skull</title>
  <path
     style="color:#000000;font-style:normal;font-variant:normal;font-weight:normal;font-stretch:normal;font-size:medium;line-height:normal;font-family:sans-serif;font-variant-ligatures:normal;font-variant-position:normal;font-variant-caps:normal;font-variant-numeric:normal;font-variant-alternates:normal;font-variant-east-asian:normal;font-feature-settings:normal;font-variation-settings:normal;text-indent:0;text-align:start;text-decoration:none;text-decoration-line:none;text-decoration-style:solid;text-decoration-color:#000000;letter-spacing:normal;word-spacing:normal;text-transform:none;writing-mode:lr-tb;direction:ltr;text-orientation:mixed;dominant-baseline:auto;baseline-shift:baseline;text-anchor:start;white-space:normal;shape-padding:0;shape-margin:0;inline-size:0;clip-rule:nonzero;display:inline;overflow:visible;visibility:visible;isolation:auto;mix-blend-mode:normal;color-interpolation:sRGB;color-interpolation-filters:linearRGB;solid-color:#000000;solid-opacity:1;vector-effect:none;fill:#000000;fill-opacity:1;fill-rule:nonzero;stroke-width:1;stroke-linecap:butt;stroke-linejoin:miter;stroke-miterlimit:4;stroke-dasharray:none;stroke-dashoffset:0;stroke-opacity:1;color-rendering:auto;image-rendering:auto;shape-rendering:auto;text-rendering:auto;enable-background:accumulate;stop-color:#000000;stop-opacity:1;stroke:none;opacity:1"
     d="M 256,16 C 141.31,16 48,109.31 48,224 v 154.83 l 82,32.81 16.88,84.36 H 192 v -64 h 32 v 64 h 16 v -64 h 32 v 64 h 16 v -64 h 32 v 64 h 45.12 L 382,411.64 464,378.83 V 224 C 464,109.31 370.69,16 256,16 Z m -88,320 c -22.64986,0 -43.06963,-13.64404 -51.73687,-34.56941 -8.66721,-20.92532 -3.8749,-45.01076 12.1409,-61.02656 16.0158,-16.0158 40.10124,-20.80811 61.02656,-12.1409 C 210.35596,236.93037 224,257.35014 224,280 c -0.0331,30.91424 -25.08576,55.96693 -56,56 z m 51.51,64 24.49,-80 h 24 l 24.49,80 z M 344,336 c -22.64986,0 -43.06963,-13.64404 -51.73687,-34.56941 -8.66721,-20.92532 -3.8749,-45.01076 12.1409,-61.02656 16.0158,-16.0158 40.10124,-20.80811 61.02656,-12.1409 C 386.35596,236.93037 400,257.35014 400,280 c -0.0331,30.91424 -25.08576,55.96693 -56,56 z m 104,32 z"
     id="path4" />
</svg>

<svg xmlns="http://www.w3.org/2000/svg" width="512" height="512" viewBox="0 0 512 512"><title>ionicons-v5-l</title><path d="M256,16C141.31,16,48,109.31,48,224V378.83l82,32.81L146.88,496H192V432h32v64h16V432h32v64h16V432h32v64h45.12L382,411.64l82-32.81V224C464,109.31,370.69,16,256,16ZM168,336a56,56,0,1,1,56-56A56.06,56.06,0,0,1,168,336Zm51.51,64L244,320h24l24.49,80ZM344,336a56,56,0,1,1,56-56A56.06,56.06,0,0,1,344,336Zm104,32h0Z"/></svg>
